!!!!SEGMENT: pl-kk--kk-i-1--019_anonim--halleluia-ave-stillans-melle-alvearium.krn
!!!cenid: 15xx:732
!!!COM: Anonim
!!!COM-rismid: pe30004985
!!!CDT:
!!!CNT:
!!!OTL: Halleluia, Ave stillans melle alvearium
!!!PDT:
!!!AGN:
!!!SMS-siglum: PL-Kk
!!!SMS-shelfmark: Kk.I.1
!!!SMS-shelfwork: 019 W
!!!SMS-variant:
!!!SMS-altvar:
!!!NIFC-rismid: 300257973
!!!URL-scan: http://repozytorium.nifc.pl/skany/pl-kk-nut--i-1
!!!ONB-nifc: UWAGA: Cantus (s. 103r-104r, skan 0105-0106), Altus (s. 98r-99r, skan 0291-0292), Tenor (s. 92r-93r, skan 0482-0483), Bassus (s. 96v-97v, skan 0659-0660).
!!!AIN: 1 alto 1 bass 1 soprn 1 tenor
!!!key: a:aeo
**kern	**text	**text	**kern	**text	**text	**kern	**text	**text	**kern	**text	**text
*part4	*part4	*part4	*part3	*part3	*part3	*part2	*part2	*part2	*part1	*part1	*part1
*staff4	*staff4	*staff4	*staff3	*staff3	*staff3	*staff2	*staff2	*staff2	*staff1	*staff1	*staff1
*I"BASSVS	*	*	*I"TENOR	*	*	*I"ALTVS	*	*	*I"CANTVS	*	*
*I'B	*	*	*I'T	*	*	*I'A	*	*	*I'S	*	*
*Ibass	*	*	*Itenor	*	*	*Ialto	*	*	*Isoprn	*	*
*ICvox	*	*	*ICvox	*	*	*ICvox	*	*	*ICvox	*	*
*clefF4	*	*	*clefC4	*	*	*clefC4	*	*	*clefC3	*	*
*k[]	*	*	*k[]	*	*	*k[]	*	*	*k[]	*	*
*a:aeo	*	*	*a:aeo	*	*	*a:aeo	*	*	*a:aeo	*	*
*M2/1	*	*	*M2/1	*	*	*M2/1	*	*	*	*	*
*met(C)	*	*	*met(C)	*	*	*met(C)	*	*	*	*	*
=1-	=1-	=1-	=1-	=1-	=1-	=1-	=1-	=1-	=1-	=1-	=1-
*	*	*	*lig	*	*	*	*	*	*2\right	*	*
1E	Hal-	.	1E	Hal-	.	1B	HA-	.	2.e\	Al-	.
.	.	.	.	.	.	.	.	.	4d\	.	.
*2\right	*	*	*	*	*	*	*	*	*	*	*
2.A\	-le-	.	1F	.	.	2.A/	-lle-	.	2c/	.	.
.	.	.	.	.	.	.	.	.	2d\	-le-	.
8G\L	.	.	.	.	.	4B/	.	.	.	.	.
8F\J	.	.	.	.	.	.	.	.	.	.	.
*	*	*	*Xlig	*	*	*	*	*	*	*	*
=2-	=2-	=2-	=2-	=2-	=2-	=2-	=2-	=2-	=2-	=2-	=2-
2E\	.	.	1G	.	.	4c\	.	.	1e	-lu-	.
.	.	.	.	.	.	4A/	.	.	.	.	.
1C	.	.	.	.	.	4B/	.	.	.	.	.
.	.	.	.	.	.	4c\	.	.	.	.	.
*	*	*	*lig	*	*	*	*	*	*	*	*
.	.	.	1E	-le-	.	4d\	.	.	2c/	-ia	.
.	.	.	.	.	.	4e\	.	.	.	.	.
2AA/	.	.	.	.	.	4d\	.	.	2.e\	.	.
.	.	.	.	.	.	4c\	.	.	.	.	.
=3-	=3-	=3-	=3-	=3-	=3-	=3-	=3-	=3-	=3-	=3-	=3-
1D	.	.	1F	.	.	4B\	.	.	.	.	.
.	.	.	.	.	.	4A/	.	.	4d/	.	.
.	.	.	.	.	.	2.B/	.	.	1d	.	.
*	*	*	*Xlig	*	*	*	*	*	*	*	*
2AA/	.	.	1E	.	.	.	.	.	.	.	.
.	.	.	.	.	.	4A/	-lu-	.	.	.	.
2C/	.	.	.	.	.	1A\	.	.	2c/	.	.
=4-	=4-	=4-	=4-	=4-	=4-	=4-	=4-	=4-	=4-	=4-	=4-
1BB	-lu-	.	1D	.	.	.	.	.	1d	.	.
*	*	*	*	*	*	*custos:A	*	*	*	*	*
.	.	.	.	.	.	2G/	.	.	.	.	.
*	*	*	*lig	*	*	*	*	*	*	*ij	*
!	!	!	!	!	!	!LO:LB:g=original	!	!	!	!	!
1AA	-ia	.	1E	.	.	1A	-ia	.	2r	.	.
.	.	.	.	.	.	.	.	.	2c/	Al-	.
=5-	=5-	=5-	=5-	=5-	=5-	=5-	=5-	=5-	=5-	=5-	=5-
*	*ij	*	*	*	*	*	*ij	*	*	*	*
2A\	Hal-	.	1D	.	.	4F/	HA-	.	2d/	.	.
.	.	.	.	.	.	4G/	.	.	.	.	.
*	*	*	*	*	*	*	*	*	*custos:e	*	*
2F\	.	.	.	.	.	4A/	.	.	1f	-le-	.
.	.	.	.	.	.	4B/	.	.	.	.	.
*	*	*	*Xlig	*	*	*	*	*	*	*	*
*custos:A	*	*	*	*	*	*	*	*	*	*	*
2G\	.	.	1C	.	.	1c	.	.	.	.	.
!LO:LB:g=original	!	!	!	!	!	!	!	!	!LO:LB:g=original	!	!
1A\	-le-	.	.	.	.	.	.	.	2e\	.	.
=6-	=6-	=6-	=6-	=6-	=6-	=6-	=6-	=6-	=6-	=6-	=6-
*	*	*	*lig	*	*	*	*	*	*	*	*
.	.	.	1D	-lu-	.	1A	.	.	2d\	.	.
4G\	.	.	.	.	.	.	.	.	2.f\	.	.
4F\	.	.	.	.	.	.	.	.	.	.	.
*	*	*	*	*	*	*2\right	*	*	*	*	*
2E/	.	.	1E	.	.	2B\	-lle-	.	.	.	.
.	.	.	.	.	.	.	.	.	4e\	.	.
2C/	.	.	.	.	.	2c\	.	.	1e\	-lu-	.
*	*	*	*Xlig	*	*	*	*	*	*	*	*
=7-	=7-	=7-	=7-	=7-	=7-	=7-	=7-	=7-	=7-	=7-	=7-
1D	.	.	1F	.	.	2A/	.	.	.	.	.
.	.	.	.	.	.	2.B\	-lu-	.	2d\	.	.
2AA/	.	.	1E	.	.	.	.	.	2e\	.	.
.	.	.	.	.	.	4A/	.	.	.	.	.
2C/	.	.	.	.	.	1A\	.	.	2c/	.	.
=8-	=8-	=8-	=8-	=8-	=8-	=8-	=8-	=8-	=8-	=8-	=8-
1BB	-lu-	.	1D	.	.	.	.	.	1d	.	.
.	.	.	.	.	.	2G/	.	.	.	.	.
!LO:TX:a:t=[sc]	!	!	!LO:TX:b:t=[sc-below]	!	!	!LO:TX:b:t=[sc-below]	!	!	!LO:TX:b:t=[sc-below]	!	!
1AA	-ia	.	1E	-ia	.	2A/	-ia	.	2c/	-ia	.
.	.	.	.	.	.	2c\	HA-	.	2e\	Al-	.
=9-	=9-	=9-	=9-	=9-	=9-	=9-	=9-	=9-	=9-	=9-	=9-
*	*	*	*lig	*	*	*	*	*	*	*	*
2r	.	.	1B	.	.	1.G	-lle-	.	2d\	.	.
*lig	*	*	*	*	*	*	*	*	*	*	*
1E	Hal-	.	.	.	.	.	.	.	1g	-le-	.
.	.	.	1c	.	.	.	.	.	.	.	.
1F\	.	.	.	.	.	1A\	.	.	1f\	.	.
*Xlig	*	*	*Xlig	*	*	*	*	*	*	*	*
=10-	=10-	=10-	=10-	=10-	=10-	=10-	=10-	=10-	=10-	=10-	=10-
*	*	*	*lig	*	*	*	*	*	*	*	*
.	.	.	1d	.	.	.	.	.	.	.	.
1G	-le-	.	.	.	.	2B\	.	.	1d	.	.
*	*	*	*custos:c	*	*	*	*	*	*	*	*
.	.	.	1B	.	.	2G/	.	.	.	.	.
1E\	.	.	.	.	.	2.B\	-lu-	.	2e\	.	.
*	*	*	*Xlig	*	*	*	*	*	*	*	*
!	!	!	!LO:PB:g=original	!	!	!	!	!	!	!	!
=11-	=11-	=11-	=11-	=11-	=11-	=11-	=11-	=11-	=11-	=11-	=11-
.	.	.	1c	.	.	.	.	.	2c/	.	.
*	*	*	*	*	*	*custos:A	*	*	*	*	*
.	.	.	.	.	.	4A/	.	.	.	.	.
!	!	!	!	!	!	!LO:LB:g=original	!	!	!	!	!
2F\	.	.	.	.	.	1A	.	.	2.f\	.	.
2D/	.	.	1B	.	.	.	.	.	.	.	.
.	.	.	.	.	.	.	.	.	4e\	.	.
2E/	.	.	.	.	.	2G/	.	.	1e\	-lu-	.
=12-	=12-	=12-	=12-	=12-	=12-	=12-	=12-	=12-	=12-	=12-	=12-
1F	.	.	1A	.	.	1A	-ia	.	.	.	.
.	.	.	.	.	.	.	.	.	2d/	.	.
2E/	-lu-	.	1G	.	.	2B\	HA-	.	2e\	.	.
2C/	.	.	.	.	.	2c\	.	.	1g\	.	.
=13-	=13-	=13-	=13-	=13-	=13-	=13-	=13-	=13-	=13-	=13-	=13-
*	*	*	*lig	*	*	*	*	*	*	*	*
1D	-ia	.	1D	.	.	2A/	.	.	.	.	.
.	.	.	.	.	.	4d\	-lle-	.	2f\	.	.
.	.	.	.	.	.	4c\	.	.	.	.	.
*custos:GG	*	*	*	*	*	*	*	*	*	*	*
2r	.	.	1G	.	.	4B\	.	.	2d/	.	.
.	.	.	.	.	.	4A/	.	.	.	.	.
!LO:LB:g=original	!	!	!	!	!	!	!	!	!	!	!
2GG/	Hal-	.	.	.	.	2B\	.	.	1e\	.	.
*	*	*	*Xlig	*	*	*	*	*	*	*	*
=14-	=14-	=14-	=14-	=14-	=14-	=14-	=14-	=14-	=14-	=14-	=14-
2AA/	.	.	1F	.	.	2c\	.	.	.	.	.
2BB/	.	.	.	.	.	4B\	.	.	2d\	.	.
.	.	.	.	.	.	4A\	.	.	.	.	.
*	*	*	*	*	*	*	*	*	*custos:c	*	*
2C/	.	.	1E	.	.	2G/	.	.	2e\	-ia	.
!	!	!	!	!	!	!	!	!	!LO:LB:g=original	!	!
2AA/	.	.	.	.	.	1A\	-lu-	.	2c/	Al-	.
=15-	=15-	=15-	=15-	=15-	=15-	=15-	=15-	=15-	=15-	=15-	=15-
1BB	.	.	1D	.	.	.	.	.	1d	-le-	.
.	.	.	.	.	.	2G/	.	.	.	.	.
2.AA/	-le-	.	[1El\	.	.	2A/	-ia	.	2c/	.	.
.	.	.	.	.	.	1c\	HA-	.	1A/	.	.
4BB/	.	.	.	.	.	.	.	.	.	.	.
=16-	=16-	=16-	=16-	=16-	=16-	=16-	=16-	=16-	=16-	=16-	=16-
2C/	.	.	0E_	.	.	.	.	.	.	.	.
2GG/	.	.	.	.	.	2B\	-lle-	.	2B/	.	.
1AA	-lu-	.	.	.	.	1A	-lu-	.	1c	-lu-	.
=17-	=17-	=17-	=17-	=17-	=17-	=17-	=17-	=17-	=17-	=17-	=17-
*	*	*	*	*	*	*custos:A	*	*	*	*	*
!	!	!	!	!	!	!LO:TX:t=P:problem=# below	!	!	!	!	!
0El	-ia	.	0E]	.	.	0G#Xl;\	-ia	.	0Bl;\	-ia	.
*	*Xij	*	*	*	*	*	*Xij	*	*	*Xij	*
!	!	!	!	!	!	!LO:LB:g=original	!	!	!	!	!
=18-	=18-	=18-	=18-	=18-	=18-	=18-	=18-	=18-	=18-	=18-	=18-
*lig	*	*	*lig	*	*	*	*	*	*lig	*	*
1AA	A-	aſ-	1E	A-	aſ-	1.A	A-	Aſ-	1e	A-	Aſ-
*col	*	*	*	*	*	*	*	*	*	*	*
2.D/	.	.	1F	.	.	.	.	.	1d	.	.
.	.	.	.	.	.	2B\	.	.	.	.	.
*Xlig	*	*	*	*	*	*	*	*	*	*	*
4C/	.	.	.	.	.	.	.	.	.	.	.
*Xcol	*	*	*Xlig	*	*	*	*	*	*Xlig	*	*
=19-	=19-	=19-	=19-	=19-	=19-	=19-	=19-	=19-	=19-	=19-	=19-
*	*	*	*lig	*	*	*	*	*	*	*	*
4AA/	.	-ſum-	1E	.	.	2c\	.	-ſum-	4c/	.	-ſum-
4BB/	.	.	.	.	.	.	.	.	4d\	.	.
!	!	!	!	!	!	!LO:TX:t=P:problem=wartość rytmiczna poprawiona	!	!	!	!	!
2C/	.	.	.	.	.	1A	.	-pta	4e\	.	.
.	.	.	.	.	.	.	.	.	4c/	.	.
*custos:AA	*	*	*	*	*	*	*	*	*	*	*
1BB	.	-pta	1D	.	.	.	.	.	1d	.	.
.	.	.	.	.	.	2Gny/	.	.	.	.	.
*	*	*	*Xlig	*	*	*	*	*	*	*	*
!LO:PB:g=original	!	!	!	!	!	!	!	!	!	!	!
=20-	=20-	=20-	=20-	=20-	=20-	=20-	=20-	=20-	=20-	=20-	=20-
1AA	-ue	eſt	1E	-ue	.	1A	.	.	2c/	.	.
.	.	.	.	.	.	.	.	.	1A	.	.
*	*	*	*lig	*	*	*	*	*	*	*	*
1r	.	.	1B	ſtil-	-ſum-	1E	-ue	eſt	.	.	.
.	.	.	.	.	.	.	.	.	2G/	.	.
=21-	=21-	=21-	=21-	=21-	=21-	=21-	=21-	=21-	=21-	=21-	=21-
2r	.	.	1c	.	.	2r	.	.	1A	.	-pta
2AA/	Stil-	Ma-	.	.	.	1A	ſtil-	Ma-	.	.	.
*	*	*	*Xlig	*	*	*	*	*	*	*	*
1E	-lans	-ri-	1B	.	-pta	.	.	.	2E/	-ue	.
.	.	.	.	.	.	2G/	-la(n)s	.	1e\	ſtil-	Aſ-
=22-	=22-	=22-	=22-	=22-	=22-	=22-	=22-	=22-	=22-	=22-	=22-
*lig	*	*	*	*	*	*lig	*	*	*	*	*
1F	mel-	.	1A	.	.	1A	mel-	-ri-	.	.	.
.	.	.	.	.	.	.	.	.	2d/	.	-ſum-
1E	.	.	1B	-lans	eſt	1G	.	.	2e\	-lans	.
.	.	.	.	.	.	.	.	.	1g\	.	.
*Xlig	*	*	*	*	*	*	*	*	*	*	*
=23-	=23-	=23-	=23-	=23-	=23-	=23-	=23-	=23-	=23-	=23-	=23-
*	*	*	*custos:d	*	*	*	*	*	*	*	*
!	!	!	!	!	!	!LO:TX:a:t=2	!	!	!	!	!
0D	-le	-a	1d	mel-	Ma-	0A	.	-a	.	.	.
.	.	.	.	.	.	.	.	.	4f\	.	.
.	.	.	.	.	.	.	.	.	4e\	mel-	.
*	*	*	*	*	*	*	*	*	*custos:g	*	*
*	*	*	*lig	*	*	*	*	*	*	*	*
!	!	!	!LO:LB:g=original	!	!	!	!	!	!	!	!
.	.	.	1d	-le	-ri-	.	.	.	1f	-le	-pta
*	*	*	*	*	*	*Xlig	*	*	*	*	*
!	!	!	!	!	!	!	!	!	!LO:LB:g=original	!	!
=24-	=24-	=24-	=24-	=24-	=24-	=24-	=24-	=24-	=24-	=24-	=24-
2r	.	.	1B	.	.	1G	-le	.	1g	.	eſt
2G\	al-	in	.	.	.	.	.	.	.	.	.
*	*	*	*Xlig	*	*	*	*	*	*	*	*
*	*	*	*lig	*	*	*	*	*	*	*	*
2E\	-ue-	cae-	1c	.	.	2r	.	.	2g\	al-	Ma-
2F\	-a-	.	.	.	.	2A/	Al-	in	2.f\	-ue-	.
=25-	=25-	=25-	=25-	=25-	=25-	=25-	=25-	=25-	=25-	=25-	=25-
2D/	.	.	1B	.	.	2d\	-ue-	cae-	.	.	.
.	.	.	.	.	.	.	.	.	4e\	.	.
2E/	.	.	.	.	.	1c	-a-	.	1e	-a-	-ri-
*	*	*	*Xlig	*	*	*	*	*	*	*	*
1F	.	.	1A	al-	-a	.	.	.	.	.	.
.	.	.	.	.	.	4B\	.	.	2d\	-ri-	-a
.	.	.	.	.	.	4A\	.	.	.	.	.
=26-	=26-	=26-	=26-	=26-	=26-	=26-	=26-	=26-	=26-	=26-	=26-
1E	-ri-	.	1G	-ue-	in	1B	.	.	00e	-um,	.
*	*	*	*lig	*	*	*	*	*	*	*	*
2AA/	-um	-lum	1A	-a-	.	2c\	.	.	.	.	.
*	*ij	*	*	*	*	*	*	*	*	*	*
*	*	*	*	*	*	*custos:E	*	*	*	*	*
1A\	al-	in	.	.	.	2A/	-ri-	-lum	.	.	.
!	!	!	!	!	!	!LO:PB:g=original	!	!	!	!	!
=27-	=27-	=27-	=27-	=27-	=27-	=27-	=27-	=27-	=27-	=27-	=27-
.	.	.	1B	.	.	1E	-um	.	.	.	.
2G\	-ue-	.	.	.	.	.	.	.	.	.	.
*	*	*	*Xlig	*	*	*	*	*	*	*	*
*	*	*	*lig	*	*	*	*	*	*	*	*
2A\	-a-	cae-	1c	-ri-	cae-	2r	.	.	.	.	.
*custos:E	*	*	*	*	*	*	*	*	*	*	*
2A\	-ri-	.	.	.	.	1A\	A-	Ma-	.	.	.
!LO:LB:g=original	!	!	!	!	!	!	!	!	!	!	!
=28-	=28-	=28-	=28-	=28-	=28-	=28-	=28-	=28-	=28-	=28-	=28-
0E	-um	-lu(m)	1B	.	.	.	.	.	1r	.	.
*	*Xij	*	*	*	*	*	*	*	*	*	*
.	.	.	.	.	.	4G/	.	.	.	.	.
.	.	.	.	.	.	4F/	.	.	.	.	.
*	*	*	*Xlig	*	*	*	*	*	*	*	*
.	.	.	1B	-um	-lum	1G	.	.	2.e\	A-	Ma-
.	.	.	.	.	.	.	.	.	4d\	.	.
=29-	=29-	=29-	=29-	=29-	=29-	=29-	=29-	=29-	=29-	=29-	=29-
*	*	*	*lig	*	*	*	*	*	*	*	*
2r	.	.	1c	A-	.	1A	.	-ri-	4c/	.	.
.	.	.	.	.	.	.	.	.	4B/	.	.
2AA/	A-	Ma-	.	.	.	.	.	.	1A	.	.
*lig	*	*	*	*	*	*	*	*	*	*	*
1E	.	-ri-	1B	.	.	2E/	-ue	-a	.	.	.
*	*	*	*	*	*	*	*ij	*	*	*	*
.	.	.	.	.	.	4e\	A-	in	2G/	.	-ri-
.	.	.	.	.	.	4d\	.	.	.	.	.
*	*	*	*Xlig	*	*	*	*	*	*	*	*
=30-	=30-	=30-	=30-	=30-	=30-	=30-	=30-	=30-	=30-	=30-	=30-
1F	.	.	1A	.	.	4c\	.	.	4A/	.	-a
.	.	.	.	.	.	4B\	.	.	4B/	.	.
.	.	.	.	.	.	2A/	.	.	4c/	.	.
.	.	.	.	.	.	.	.	.	4d/	.	.
*Xlig	*	*	*	*	*	*	*	*	*	*	*
1E	.	-a	1G	.	.	2.B/	.	cae-	1e	.	.
.	.	.	.	.	.	4G/	.	.	.	.	.
=31-	=31-	=31-	=31-	=31-	=31-	=31-	=31-	=31-	=31-	=31-	=31-
*	*	*	*lig	*	*	*	*	*	*	*	*
1AA	-ue	aſ-	1E	.	gau-	4A/	.	.	4c/	.	in
.	.	.	.	.	.	4B/	.	.	4d\	.	.
.	.	.	.	.	.	1c	.	.	4e\	.	.
.	.	.	.	.	.	.	.	.	4c/	.	.
*lig	*ij	*	*	*	*	*	*	*	*	*	*
1D	A-	-ſum-	1F	.	.	.	.	.	4d\	.	cae-
.	.	.	.	.	.	.	.	.	4e\	.	.
.	.	.	.	.	.	2B/	.	.	2.f\	.	.
*	*	*	*Xlig	*	*	*	*	*	*	*	*
=32-	=32-	=32-	=32-	=32-	=32-	=32-	=32-	=32-	=32-	=32-	=32-
1C	.	.	1G	.	.	1c	.	.	.	.	.
.	.	.	.	.	.	.	.	.	4e\	.	.
*	*	*	*	*	*	*	*	*	*custos:d	*	*
.	.	.	.	.	.	.	.	.	1e	.	.
*Xlig	*	*	*lig	*	*	*	*	*	*	*	*
*	*	*	*	*	*	*custos:c	*	*	*	*	*
1D	-ue	-pta	1F	-ue	.	0.A	-ue	-lu(m)	.	.	.
*	*Xij	*	*	*	*	*	*Xij	*	*	*	*
!	!	!	!	!	!	!	!	!	!LO:PB:g=original	!	!
.	.	.	.	.	.	.	.	.	2d/	.	.
=33-	=33-	=33-	=33-	=33-	=33-	=33-	=33-	=33-	=33-	=33-	=33-
1AA	ue-	eſt	1E	.	.	.	.	.	1e	.	-lu(m)
*	*	*	*Xlig	*	*	*	*	*	*	*	*
1D	-ri	in	1D	ue-	.	.	.	.	1f	-ue	gau-
!	!	!	!	!	!	!LO:LB:g=original	!	!	!	!	!
=34-	=34-	=34-	=34-	=34-	=34-	=34-	=34-	=34-	=34-	=34-	=34-
1E	ſa-	cae-	1G	-ri	.	2r	.	.	2e\	.	.
.	.	.	.	.	.	2c\	ve-	gau-	2c/	ue-	.
1D	-lo-	.	1A	ſa-	.	2A/	-ri	.	2d/	-ri	.
.	.	.	.	.	.	2d\	Sa-	.	2.f\	ſa-	.
=35-	=35-	=35-	=35-	=35-	=35-	=35-	=35-	=35-	=35-	=35-	=35-
*	*	*	*custos:A	*	*	*	*	*	*	*	*
1E	-mo-	-lum	1G	-lo-	.	2B\	-lo-	.	.	.	.
.	.	.	.	.	.	.	.	.	4e\	-lo-	.
.	.	.	.	.	.	1c	-mo-	.	1e	.	.
!	!	!	!LO:LB:g=original	!	!	!	!	!	!	!	!
1F	-nis	.	1A	-mo-	-det	.	.	.	.	.	.
.	.	.	.	.	.	4B/	.	.	2d/	-mo-	-det
.	.	.	.	.	.	4A/	.	.	.	.	.
=36-	=36-	=36-	=36-	=36-	=36-	=36-	=36-	=36-	=36-	=36-	=36-
2.E\	fer-	gau-	1B	-nis	.	2G/	-nis	.	1e	-nis	ex-
.	.	.	.	.	.	2.B/	fer-	.	.	.	.
4D/	.	.	.	.	.	.	.	.	.	.	.
*	*	*	*lig	*	*	*	*	*	*	*	*
2C/	.	.	1c	fer-	.	.	.	.	1.e	fer-	-er-
.	.	.	.	.	.	4A/	.	.	.	.	.
2AA/	.	.	.	.	.	1A\	.	-det	.	.	.
=37-	=37-	=37-	=37-	=37-	=37-	=37-	=37-	=37-	=37-	=37-	=37-
*custos:AA	*	*	*	*	*	*	*	*	*	*	*
1E	-cu-	.	1B	.	.	.	.	.	.	.	.
.	.	.	.	.	.	2G/	.	e-	2e\	-cu-	-ci-
*	*	*	*Xlig	*	*	*	*	*	*	*	*
!LO:LB:g=original	!	!	!	!	!	!	!	!	!	!	!
2AA/	-lum	-det	1A	-cu-	.	2.A/	.	-xer-	0e	-lu(m)	-t(us)
1A\	A-	e-	.	.	.	.	.	.	.	.	.
.	.	.	.	.	.	4A/	-cu-	-ci-	.	.	.
=38-	=38-	=38-	=38-	=38-	=38-	=38-	=38-	=38-	=38-	=38-	=38-
.	.	.	1B	-lu(m)	.	1E	-lu(m)	-t(us)	.	.	.
2G\	.	-xer-	.	.	.	.	.	.	.	.	.
*	*	*	*lig	*	*	*	*	*	*	*	*
2F\	.	.	1d	A-	.	2r	.	.	1f	A-	gau-
!	!	!	!	!	!	!LO:TX:t=P:problem=wartość rytmiczna poprawiona	!	!	!	!	!
2D/	.	-ci-	.	.	.	1A\	A-	gau-	.	.	.
=39-	=39-	=39-	=39-	=39-	=39-	=39-	=39-	=39-	=39-	=39-	=39-
1E	.	-t(us)	1B	.	.	.	.	.	0e	-ue	-det
.	.	.	.	.	.	2G/	.	.	.	.	.
*	*	*	*Xlig	*	*	*	*	*	*	*	*
2AA/	-ue	gau-	1c	.	.	2A/	.	.	.	.	.
*	*ij	*	*	*	*	*	*	*	*	*	*
2C/	fer-	.	.	.	.	2E/	.	.	.	.	.
=40-	=40-	=40-	=40-	=40-	=40-	=40-	=40-	=40-	=40-	=40-	=40-
*	*	*	*	*	*	*custos:G	*	*	*	*	*
2D/	-cu-	.	1B	.	.	2F/	.	.	2r	.	.
!	!	!	!	!	!	!LO:LB:g=original	!	!	!	!	!
2E\	.	.	.	.	.	2G/	.	-det	2e\	A-	gau-
2F\	.	.	1A	.	.	4A/	.	.	2c/	.	.
.	.	.	.	.	.	4D/	.	.	.	.	.
2D/	-lum	.	.	.	.	2d\	.	e-	2f\	.	.
=41-	=41-	=41-	=41-	=41-	=41-	=41-	=41-	=41-	=41-	=41-	=41-
*lig	*	*	*	*	*	*	*	*	*	*	*
1E	A-	-det	1G	.	.	2B\	.	.	2e\	.	.
.	.	.	.	.	.	2.e\	.	-xer-	1g	.	.
*	*	*	*lig	*	*	*	*	*	*	*	*
1C	.	.	1E	.	e-	.	.	.	.	.	.
.	.	.	.	.	.	4d\	.	.	.	.	.
.	.	.	.	.	.	1c\	.	.	4f\	.	.
*	*	*	*	*	*	*	*	*	*custos:d	*	*
.	.	.	.	.	.	.	.	.	4e\	.	.
*Xlig	*	*	*	*	*	*	*	*	*	*	*
!	!	!	!	!	!	!	!	!	!LO:LB:g=original	!	!
=42-	=42-	=42-	=42-	=42-	=42-	=42-	=42-	=42-	=42-	=42-	=42-
1D	.	ex-	1F	.	.	.	.	.	2d\	.	.
.	.	.	.	.	.	2B\	.	-ci-	2.f\	.	.
*lig	*	*	*Xlig	*	*	*	*	*	*	*	*
1C	.	-er-	1G	.	.	1c	.	-t(us)	.	.	.
.	.	.	.	.	.	.	.	.	4e\	.	.
.	.	.	.	.	.	.	.	.	1e\	.	.
=43-	=43-	=43-	=43-	=43-	=43-	=43-	=43-	=43-	=43-	=43-	=43-
*	*	*	*lig	*	*	*	*	*	*	*	*
1D	.	-ci-	1F	-ue	.	0A	-ue	e-	.	.	.
.	.	.	.	.	.	.	.	.	2d\	.	.
*Xlig	*	*	*	*	*	*	*	*	*	*	*
1AA	-ue	-t(us)	1E	.	.	.	.	.	1e	-ue	-det
*	*Xij	*	*Xlig	*	*	*	*	*	*	*	*
=44-	=44-	=44-	=44-	=44-	=44-	=44-	=44-	=44-	=44-	=44-	=44-
2r	.	.	1D	ver-	-xer-	1d	ver-	-xer-	1f	ver-	e-
1A	ver-	ex-	.	.	.	.	.	.	.	.	.
*	*	*	*lig	*	*	*	*	*	*	*	*
.	.	.	1E	-bi	.	2B/	-bi	.	2e\	-bi	.
2G\	.	-er-	.	.	.	1c\	De-	.	2.e\	de-	-xer-
=45-	=45-	=45-	=45-	=45-	=45-	=45-	=45-	=45-	=45-	=45-	=45-
2.A\	-bi	.	1F	.	.	.	.	.	.	.	.
.	.	.	.	.	.	.	.	.	4d\	.	.
.	.	.	.	.	.	4B/	.	.	1d	.	.
8G\L	de-	.	.	.	.	4A/	-i	.	.	.	.
*custos:E	*	*	*	*	*	*	*	*	*	*	*
8F\J	.	.	.	.	.	.	.	.	.	.	.
*	*	*	*Xlig	*	*	*	*	*	*	*	*
!LO:LB:g=original	!	!	!	!	!	!	!	!	!	!	!
1E	.	.	1G	de-	.	2B\	.	.	.	.	.
.	.	.	.	.	.	2G/	.	.	2c/	.	-ci-
=46-	=46-	=46-	=46-	=46-	=46-	=46-	=46-	=46-	=46-	=46-	=46-
2D/	-i	-ci-	1F	-i	.	2.A/	tu	.	2d\	-i	-t(us)
2D/	tu	-t(us)	.	.	.	.	.	.	2f\	tu	gau-
.	.	.	.	.	.	4B\	.	-ci-	.	.	.
*	*	*	*lig	*	*	*	*	*	*	*	*
*	*	*	*	*	*	*custos:d	*	*	*	*	*
2C/	ſa-	an-	1G	tu	.	2c\	.	-t(us)	2e\	ſa-	.
!	!	!	!	!	!	!LO:LB:g=original	!	!	!	!	!
2BB/	-cra-	-ge-	.	.	.	1d\	ſa-	e-	2d\	.	.
=47-	=47-	=47-	=47-	=47-	=47-	=47-	=47-	=47-	=47-	=47-	=47-
*	*	*	*custos:G	*	*	*	*	*	*	*	*
1AA	-ri-	-lo-	1A	.	.	.	.	.	2f\	.	.
.	.	.	.	.	.	2c\	-cra-	-xer-	4e\	-cra-	.
.	.	.	.	.	.	.	.	.	4d\	.	.
*	*	*	*Xlig	*	*	*	*	*	*	*	*
!	!	!	!LO:LB:g=original	!	!	!	!	!	!	!	!
1E	-um	-ru(m)	1G	ſa-	.	2B\	.	.	2.e\	.	.
.	.	.	.	.	.	1c\	.	.	.	.	.
*	*	*	*	*	*	*	*	*	*custos:g	*	*
.	.	.	.	.	.	.	.	.	4f\	.	.
!	!	!	!	!	!	!	!	!	!LO:LB:g=original	!	!
=48-	=48-	=48-	=48-	=48-	=48-	=48-	=48-	=48-	=48-	=48-	=48-
0r	.	.	1E	-cra-	.	.	.	.	2g\	.	.
.	.	.	.	.	.	2B\	.	.	1e	.	.
.	.	.	1F	-ri-	.	1A	-ri-	.	.	.	.
.	.	.	.	.	.	.	.	.	2d\	-ri-	.
=49-	=49-	=49-	=49-	=49-	=49-	=49-	=49-	=49-	=49-	=49-	=49-
1G	A-	gau-	1E	-um	.	1B	-um	.	2e\	-um	-det
.	.	.	.	.	.	.	.	.	1g	A-	e-
*	*	*	*lig	*	*	*	*	*	*	*	*
2E\	.	.	1G	A-	.	2.B\	A-	.	.	.	.
1G\	.	.	.	.	.	.	.	.	2e\	.	.
.	.	.	.	.	.	4A/	.	.	.	.	.
=50-	=50-	=50-	=50-	=50-	=50-	=50-	=50-	=50-	=50-	=50-	=50-
.	.	.	1E	.	.	4B/	.	.	1g	.	-xer-
.	.	.	.	.	.	4G/	.	.	.	.	.
4F\	.	.	.	.	.	1c	.	.	.	.	.
4E\	.	.	.	.	.	.	.	.	.	.	.
*	*	*	*Xlig	*	*	*	*	*	*	*	*
1D	.	.	1F	.	.	.	.	.	2f\	.	.
.	.	.	.	.	.	2B\	.	-ci-	2d/	.	.
=51-	=51-	=51-	=51-	=51-	=51-	=51-	=51-	=51-	=51-	=51-	=51-
*lig	*	*	*	*	*	*	*	*	*	*	*
1C	.	.	1E	.	-ci-	1c	.	-t(us)	2e\	.	.
.	.	.	.	.	.	.	.	.	1g	.	.
1D	.	.	1D	.	-tuſ	2.A/	.	an-	.	.	.
.	.	.	.	.	.	.	.	.	2f\	.	.
.	.	.	.	.	.	4B\	.	.	.	.	.
*Xlig	*	*	*	*	*	*	*	*	*	*	*
=52-	=52-	=52-	=52-	=52-	=52-	=52-	=52-	=52-	=52-	=52-	=52-
2AA/	.	-det	1C	.	.	2c\	.	.	1e	.	.
2C/	.	ex-	.	.	.	1A	.	-ge-	.	.	.
1BB	.	-er-	1D	.	.	.	.	.	1d	.	.
.	.	.	.	.	.	2G/	.	-lo-	.	.	.
=53-	=53-	=53-	=53-	=53-	=53-	=53-	=53-	=53-	=53-	=53-	=53-
*lig	*	*	*lig	*	*	*	*	*	*	*	*
*	*	*	*	*	*	*custos:D	*	*	*	*	*
1AA	.	.	1E	.	.	0.A	-ue	-ru(m)	2c/	.	.
.	.	.	.	.	.	.	.	.	2.e\	.	.
1D	.	.	1F	.	.	.	.	.	.	.	.
.	.	.	.	.	.	.	.	.	4d/	.	.
.	.	.	.	.	.	.	.	.	1d\	.	.
*Xlig	*	*	*Xlig	*	*	*	*	*	*	*	*
=54-	=54-	=54-	=54-	=54-	=54-	=54-	=54-	=54-	=54-	=54-	=54-
2AA/	-ue	-ci-	1E	-ue	.	.	.	.	.	.	.
*custos:BB	*	*	*	*	*	*	*	*	*	*	*
2AA/	De-	-t(us)	.	.	.	.	.	.	2c/	.	-ci-
*lig	*	*	*	*	*	*	*	*	*	*	*
!LO:PB:g=original	!	!	!	!	!	!LO:PB:g=original	!	!	!	!	!
1BB	-i-	an-	1D	De-	.	2D/	.	a-	1d	.	-t(us)
.	.	.	.	.	.	2.d\	De-	.	.	.	.
=55-	=55-	=55-	=55-	=55-	=55-	=55-	=55-	=55-	=55-	=55-	=55-
*	*	*	*lig	*	*	*	*	*	*	*	*
1C	.	.	1E	-i-	an-	.	.	.	2G/	-ue	.
.	.	.	.	.	.	4c\	-i-	.	.	.	.
.	.	.	.	.	.	1c	.	.	2.g\	De-	an-
*Xlig	*	*	*	*	*	*	*	*	*	*	*
1D	-ta-	.	1F	.	.	.	.	.	.	.	.
*	*	*	*	*	*	*	*	*	*custos:f	*	*
.	.	.	.	.	.	.	.	.	4f\	.	.
!	!	!	!	!	!	!	!	!	!LO:LB:g=original	!	!
.	.	.	.	.	.	2B/	-ta-	.	1f\	-i-	-ge-
*	*	*	*Xlig	*	*	*	*	*	*	*	*
=56-	=56-	=56-	=56-	=56-	=56-	=56-	=56-	=56-	=56-	=56-	=56-
1C	-tis	-ge-	1G	-ta-	.	1c	-tis	.	.	.	.
.	.	.	.	.	.	.	.	.	2e\	-ta-	.
*lig	*	*	*	*	*	*	*	*	*	*	*
1D	re-	-lo-	1F	-tis	.	2.A/	re-	-ge-	1f	-tis	-lo-
.	.	.	.	.	.	4B/	.	.	.	.	.
=57-	=57-	=57-	=57-	=57-	=57-	=57-	=57-	=57-	=57-	=57-	=57-
*	*	*	*lig	*	*	*	*	*	*	*	*
1E	.	.	1G	re-	.	2c\	.	.	2.e\	re-	.
.	.	.	.	.	.	2B\	.	.	.	.	.
.	.	.	.	.	.	.	.	.	4d/	.	.
*Xlig	*	*	*	*	*	*	*	*	*	*	*
2AA/	.	.	1A	.	.	1A	-ce-	.	4c/	.	.
.	.	.	.	.	.	.	.	.	4B/	.	.
2.D/	.	.	.	.	.	.	.	.	1A/	.	.
*	*	*	*Xlig	*	*	*	*	*	*	*	*
=58-	=58-	=58-	=58-	=58-	=58-	=58-	=58-	=58-	=58-	=58-	=58-
*	*	*	*custos:G	*	*	*	*	*	*	*	*
.	-ce-	.	1D	.	.	2.d\	-pta-	-lo-	.	.	.
4C/	.	.	.	.	.	.	.	.	.	.	.
4BB/	.	.	.	.	.	.	.	.	2.d/	.	.
4AA/	.	.	.	.	.	4c\	.	.	.	.	.
!	!	!	!LO:PB:g=original	!	!	!	!	!	!	!	!
1GG	.	-ru(m)	1G	-ce-	.	4B\	.	.	.	.	.
.	.	.	.	.	.	4A/	.	.	4c/	-ce-	.
.	.	.	.	.	.	4G/	.	.	4B/	.	.
.	.	.	.	.	.	4A/	.	.	4A/	.	.
=59-	=59-	=59-	=59-	=59-	=59-	=59-	=59-	=59-	=59-	=59-	=59-
*	*	*	*lig	*	*	*	*	*	*	*	*
2.G\	-pta-	an-	1E	-pta-	.	2B\	.	.	2G/	.	-ru(m)
.	.	.	.	.	.	2B\	-cu-	.	2.g\	.	an-
4F\	.	.	.	.	.	.	.	.	.	.	.
4E\	.	.	1C	.	.	2c\	-lu(m)	-ru(m)	.	.	.
4D/	.	.	.	.	.	.	.	.	4f\	-pta-	.
*	*	*	*	*	*	*custos:A	*	*	*	*	*
1C/	.	.	.	.	.	2G/	re-	an-	2e\	.	.
*	*	*	*Xlig	*	*	*	*	*	*	*	*
!	!	!	!	!	!	!LO:LB:g=original	!	!	!	!	!
=60-	=60-	=60-	=60-	=60-	=60-	=60-	=60-	=60-	=60-	=60-	=60-
*	*	*	*lig	*	*	*	*	*	*	*	*
.	.	.	1D	-cu-	.	2A/	-ce-	.	1d	.	.
2BB/	.	.	.	.	.	2B/	-pta-	.	.	.	.
1C	.	-ge-	1E	.	.	2G/	.	.	2c/	.	-ge-
.	.	.	.	.	.	2c\	.	.	2.e\	.	-lo-
*	*	*	*Xlig	*	*	*	*	*	*	*	*
=61-	=61-	=61-	=61-	=61-	=61-	=61-	=61-	=61-	=61-	=61-	=61-
[>2.D/	.	-lo-	1F	.	-ge-	1A	-cu-	-ge-	.	.	.
.	.	.	.	.	.	.	.	.	4d/	.	.
.	.	.	.	.	.	.	.	.	1d	.	.
4D/]	-cu-	.	.	.	.	.	.	.	.	.	.
1AA	-lum	-ru(m)	1E	-lum	.	1A	-lu(m)	-lo-	.	.	.
.	.	.	.	.	.	.	.	.	2c/	-cu-	.
=62-	=62-	=62-	=62-	=62-	=62-	=62-	=62-	=62-	=62-	=62-	=62-
*	*	*	*lig	*	*	*	*	*	*	*	*
*custos:E	*	*	*	*	*	*	*	*	*	*	*
2r	.	.	1B	Ma-	-lo-	1.G	Ma-	.	2d/	-lu(m)	-ru(m)
*lig	*	*	*	*	*	*	*	*	*	*	*
!LO:LB:g=original	!	!	!	!	!	!	!	!	!	!	!
1E	Ma-	an-	.	.	.	.	.	.	1g	Ma-	e-
.	.	.	1c	.	.	.	.	.	.	.	.
*	*	*	*	*	*	*	*	*	*custos:d	*	*
1F\	.	.	.	.	.	1A\	-ri-	.	1f\	.	-xer-
*Xlig	*	*	*Xlig	*	*	*	*	*	*	*	*
=63-	=63-	=63-	=63-	=63-	=63-	=63-	=63-	=63-	=63-	=63-	=63-
.	.	.	1d	.	.	.	.	.	.	.	.
!	!	!	!	!	!	!	!	!	!LO:PB:g=original	!	!
1G	.	.	.	.	.	2B/	.	.	1d	.	.
.	.	.	1B	.	.	2G/	.	.	.	.	.
1E\	.	-ge-	.	.	.	2.B\	.	.	2e\	.	.
=64-	=64-	=64-	=64-	=64-	=64-	=64-	=64-	=64-	=64-	=64-	=64-
.	.	.	1c	.	.	.	.	.	2c/	.	.
.	.	.	.	.	.	4A/	.	.	.	.	.
2F\	.	-lo-	.	.	.	1A	.	-ru(m)	2.f\	.	.
2D/	.	.	1B	.	.	.	.	.	.	.	.
.	.	.	.	.	.	.	.	.	4e\	.	.
2E\	.	.	.	.	.	2G/	-a	.	1e\	.	.
=65-	=65-	=65-	=65-	=65-	=65-	=65-	=65-	=65-	=65-	=65-	=65-
1F	.	.	1A	.	.	2r	.	.	.	.	.
*	*	*	*	*	*	*	*ij	*	*	*	*
.	.	.	.	.	.	2A/	Ma-	a-	2d\	-ri-	-ci-
2E\	.	.	1G	.	.	2B\	.	.	2e\	-a	-t(us)
2C/	-ri-	.	.	.	.	2c\	.	.	1g\	Ma-	an-
=66-	=66-	=66-	=66-	=66-	=66-	=66-	=66-	=66-	=66-	=66-	=66-
*	*	*	*lig	*	*	*	*	*	*	*	*
*	*	*	*	*	*	*custos:d	*	*	*	*	*
1D	-a	-ru(m)	1D	.	.	2A/	.	.	.	.	.
!	!	!	!	!	!	!LO:LB:g=original	!	!	!	!	!
.	.	.	.	.	.	4d\	-ri-	.	2f\	.	-ge-
.	.	.	.	.	.	4c\	.	.	.	.	.
2r	.	.	1G	.	.	4B\	.	.	2d/	.	.
.	.	.	.	.	.	4A/	.	.	.	.	.
*	*ij	*	*	*	*	*	*	*	*	*	*
2GG/	Ma-	an-	.	.	.	2B\	.	.	1e\	.	-lo-
*	*	*	*Xlig	*	*	*	*	*	*	*	*
=67-	=67-	=67-	=67-	=67-	=67-	=67-	=67-	=67-	=67-	=67-	=67-
2AA/	.	.	1F	-ri-	.	2c\	-a	-ge-	.	.	.
*	*	*	*	*	*	*	*Xij	*	*	*	*
2BB/	.	-ge-	.	.	.	4B/	Ma-	-lo-	2d/	.	.
.	.	.	.	.	.	4A/	.	.	.	.	.
2C/	.	-lo-	1E	.	.	2G/	.	.	2e\	.	.
2AA/	.	.	.	.	.	1A\	.	.	2c/	.	.
=68-	=68-	=68-	=68-	=68-	=68-	=68-	=68-	=68-	=68-	=68-	=68-
1BB	-ri-	.	1D	.	.	.	.	.	1d	-ri-	-ru(m)
.	.	.	.	.	.	2G/	-ri-	-ru(m)	.	.	.
1AAl	-a	-ru(m)	1El	-a	-rum	1Al	-a:	.	1cl;	-a	.
*custos:E	*Xij	*	*custos:E	*	*	*custos:B	*	*	*custos:e	*	*
==	==	==	==	==	==	==	==	==	==	==	==
*-	*-	*-	*-	*-	*-	*-	*-	*-	*-	*-	*-
!!!system-decoration: [(*)]
!!!RDF**kern: > = above
!!!RDF**kern: < = below
!!!RDF**kern: l = terminal long
!!!ENC: Mateusz Solarz
!!!END: 2022-02-23
!!!ENC: Andrzej Kubiczek
!!!END: 2022-02-27
